X: 101
T: Cantantibus organis – Allegro moderato
C: Franciszek Walczyński
%%abc-version 2.0
%%abcx-abcm2ps-target-version 5.9.1 (29 Sep 2008)
%%abc-creator hum2abc beta
%%abcx-conversion-date 2021/10/04 07:38:40
%%abc-edited-by Kamil Watkowski
%%abcx-initial-encoding-date 2021-08-09
%%humdrum-veritas 3356578865
%%humdrum-veritas-data 1465819629
%%linebreak <none>
%%barnumbers 0
L: 1/8
M: 2/4
N: Derived from pl-kozmzk--mzk-m-346--002_walczynski-franciszek--cantantibus-organis-allegro-moderato.krn
%%staves {1 2}
V: 1 clef=treble
V: 2 clef=bass
K: C
[V:1] z4 & z4 | 
[V:2] z4 & C,D,/E,/ F,A, | 
[V:1] z4 & z4 | 
[V:2] G,A,/B,/ CE & G,^F,/=F,/ E,C, | 
[V:1] GFE2 & D2C2- | 
[V:2] D2G,2 & B,,2C,_B,, | 
[V:1] FE DE/F/ & C4- | 
[V:2] F,G,A,2 & A,,G,,F,,2 | 
[V:1] E2D2 & C3B, | 
[V:2] G,3-G,/F,/ & G,,4 | 
[V:1] C zz2 & CD/E/ FA | 
[V:2] E, zz2 & C, xx2 | 
[V:1] GA/B/ ce & G^F/=F/ EC | 
[V:2] z4 & z4 | 
[V:1] gf ed/c/ & G4 | 
[V:2] B,2CD/E/ & z4 | 
[V:1] d2cB & A2G2 | 
[V:2] F2ED & F,2G,G,, | 
[V:1] c4- & EF/G/ Ac | 
[V:2] C4- & C,D,/E,/ F,A, | 
[V:1] c4- & BAGF | 
[V:2] C4- & G,F,E,D, | 
[V:1] c4- & E2F2 | 
[V:2] C4 & C,_B,,A,,_A,, | 
[V:1] c3B & G2F2 | 
[V:2] E2D2 & G,,4 | 
[V:1] c2z2 & E2z2 | 
[V:2] C2z2 & [C,,C,][D,,/D,/][E,,/E,/] [F,,F,][A,,A,] | 
[V:1] z!accent![G2B2d2][GBd] | 
[V:2] [G,,3G,3][F,,F,] | 
[V:1] !accent![c3g3][df] & G3A | 
[V:2] !accent![E,,3E,3][F,,F,] | 
[V:1] !accent![c2e2]!accent![B2d2] & G2-GF | 
[V:2] !accent![G,,2G,2]!accent![G,,2G,2] | 
[V:1] !fermata![C4E4G4c4] |]  
[V:2] !fermata![C,,4C,4] |]  


